dist/flags/s/831.svg

<svg width="16" height="12" viewBox="0 0 16 12" fill="none" xmlns="http://www.w3.org/2000/svg">
<mask id="mask0" mask-type="alpha" maskUnits="userSpaceOnUse" x="0" y="0" width="16" height="12">
<rect width="16" height="12" fill="white"/>
</mask>
<g mask="url(#mask0)">
<path fill-rule="evenodd" clip-rule="evenodd" d="M0 0V12H16V0H0Z" fill="#F7FCFF"/>
<mask id="mask1" mask-type="alpha" maskUnits="userSpaceOnUse" x="0" y="0" width="16" height="12">
<path fill-rule="evenodd" clip-rule="evenodd" d="M0 0V12H16V0H0Z" fill="white"/>
</mask>
<g mask="url(#mask1)">
<path fill-rule="evenodd" clip-rule="evenodd" d="M6 0H10V4H16V8H10V12H6V8H0V4H6V0Z" fill="#E31D1C"/>
<path fill-rule="evenodd" clip-rule="evenodd" d="M6.50275 1.52295L6.99999 2.40005V4.99997H3.43261V4.97139L2.55298 4.47272V7.45281L3.3853 6.99997H6.99999V9.52547L6.50275 10.4026H9.48284L9.00427 9.52295H8.99999V6.99997H12.6003L13.4326 7.45281V4.47272L12.553 4.97139V4.99997H8.99999V2.40258H9.00427L9.48284 1.52295H6.50275Z" fill="#FECA00"/>
</g>
</g>
</svg>

<svg width="16" height="12" fill="none" xmlns="http://www.w3.org/2000/svg">
  <mask id="a" maskUnits="userSpaceOnUse" x="0" y="0" width="16" height="12">
    <path fill="#fff" d="M0 0h16v12H0z"/>
  </mask>
  <g mask="url(#a)">
    <path fill-rule="evenodd" clip-rule="evenodd" d="M0 0v12h16V0H0z" fill="#F7FCFF"/>
    <mask id="b" maskUnits="userSpaceOnUse" x="0" y="0" width="16" height="12">
      <path fill-rule="evenodd" clip-rule="evenodd" d="M0 0v12h16V0H0z" fill="#fff"/>
    </mask>
    <g mask="url(#b)" fill-rule="evenodd" clip-rule="evenodd">
      <path d="M6 0h4v4h6v4h-6v4H6V8H0V4h6V0z" fill="#E31D1C"/>
      <path d="M6.503 1.523L7 2.4V5H3.433v-.029l-.88-.498v2.98L3.385 7H7v2.525l-.497.878h2.98l-.479-.88H9V7h3.6l.833.453v-2.98l-.88.498V5H9V2.403h.004l.479-.88h-2.98z" fill="#FECA00"/>
    </g>
  </g>
</svg>
